static/assets/images/exchanges/spookyswap.svg

<svg width="272" height="256" viewBox="0 0 272 256" fill="none" xmlns="http://www.w3.org/2000/svg">
<path fill-rule="evenodd" clip-rule="evenodd" d="M30.9678 95.9214C29.1389 107.681 31.2921 119.782 33.5283 131.41C34.3901 133.268 36.2782 134.519 38.6056 135.32C33.8323 145.386 31.2084 156.363 31.2084 167.854C31.2084 216.516 78.3611 256 136.521 256C194.68 256 241.866 216.607 241.866 167.854C241.866 156.243 239.189 145.159 234.324 135.009C236.271 134.208 237.823 133.044 238.583 131.41C240.82 119.782 242.964 107.681 241.136 95.9214C239.423 80.1409 234.003 75.3236 217.726 79.3682C209.445 81.2893 198.531 86.1722 190.138 91.9157C174.429 84.1278 156.096 79.6588 136.521 79.6588C116.721 79.6588 98.1964 84.2353 82.373 92.1942C73.9304 86.3301 62.7937 81.3201 54.3863 79.3682C38.1006 75.3236 32.6887 80.1409 30.9678 95.9214ZM92.2856 165.496C79.9405 160.056 58.8417 161.434 58.8417 161.434C58.8417 161.434 59.8309 181.276 71.9433 188.012C86.3085 195.993 113.019 192.04 113.019 192.04C113.019 192.04 110.749 173.586 92.2856 165.455V165.496ZM160.878 192.073C160.878 192.073 187.588 196.027 201.954 188.045C214.066 181.309 215.056 161.468 215.056 161.468C215.056 161.468 193.957 160.089 181.611 165.529C163.148 173.586 160.878 191.998 160.878 191.998V192.073ZM131.25 206.059C131.25 207.522 133.968 208.709 137.318 208.709C140.668 208.709 143.387 207.522 143.387 206.059C143.387 204.598 140.668 203.419 137.318 203.419C133.968 203.419 131.25 204.556 131.25 206.059Z" fill="#F2F4F8"/>
<path fill-rule="evenodd" clip-rule="evenodd" d="M256.54 193.842C246.683 190.04 236.213 188.07 225.647 188.029H225.664C222.987 188.029 222.987 183.876 225.664 183.876C236.605 183.911 247.449 185.941 257.662 189.864C258.179 190.022 258.615 190.372 258.883 190.841C259.15 191.31 259.228 191.864 259.1 192.389C258.95 192.919 258.598 193.369 258.119 193.641C257.639 193.913 257.072 193.985 256.54 193.842ZM16.071 189.956C26.2868 186.033 37.1328 184.004 48.0769 183.967V183.992C50.7539 183.992 50.7456 188.145 48.0769 188.145C37.508 188.182 27.0352 190.153 17.1766 193.958C16.6455 194.099 16.0802 194.026 15.6029 193.754C15.1254 193.482 14.7741 193.033 14.6245 192.504C14.4922 191.976 14.5685 191.416 14.8378 190.941C15.107 190.467 15.5485 190.113 16.071 189.956ZM37.2617 201.857C42.374 200.231 47.6917 199.339 53.0551 199.208C55.7171 199.223 55.7122 203.36 53.0403 203.36C48.1484 203.488 43.2988 204.302 38.6334 205.777C34.2939 207.048 29.3309 208.842 26.1636 211.774C24.2017 213.592 21.2587 210.661 23.229 208.842C27.078 205.288 32.3736 203.327 37.2617 201.857ZM53.0551 199.208H53.0569H53.0403H53.0551ZM57.795 209.581C53.6263 211.364 49.6184 213.501 45.8157 215.968C41.9745 218.333 38.5945 221.375 35.8398 224.946C35.5633 225.421 35.486 225.986 35.6246 226.518C35.7631 227.051 36.1064 227.506 36.5797 227.786C37.0591 228.052 37.6225 228.124 38.1533 227.986C38.684 227.849 39.1416 227.512 39.4311 227.047C41.7672 223.824 45.1174 221.325 48.4344 219.19C52.0752 216.882 55.8948 214.868 59.8568 213.169C60.3297 212.889 60.6733 212.433 60.8133 211.902C60.9533 211.37 60.8784 210.805 60.605 210.328C60.3169 209.864 59.8614 209.528 59.3326 209.388C58.8036 209.249 58.2414 209.318 57.7618 209.581H57.795ZM220.669 203.277C225.561 203.399 230.411 204.209 235.075 205.686C237.486 206.37 239.84 207.239 242.117 208.285C244.082 209.144 245.905 210.291 247.529 211.691C249.491 213.501 252.433 210.578 250.472 208.75C246.648 205.204 241.385 203.236 236.464 201.766C231.351 200.139 226.032 199.251 220.669 199.124C217.992 199.124 217.984 203.277 220.669 203.277ZM225.258 219.066C221.662 216.845 217.902 214.901 214.01 213.252V213.211C213.539 212.929 213.196 212.474 213.057 211.943C212.917 211.412 212.991 210.847 213.262 210.37C213.554 209.908 214.012 209.574 214.541 209.437C215.071 209.3 215.633 209.369 216.113 209.631C224.211 213.16 232.732 217.696 238.027 224.996C238.301 225.472 238.378 226.036 238.239 226.568C238.101 227.099 237.759 227.554 237.287 227.836C236.808 228.101 236.245 228.171 235.716 228.032C235.186 227.893 234.73 227.555 234.444 227.089C232.05 223.792 228.666 221.233 225.258 219.066Z" fill="#F2F4F8"/>
<path d="M0.275504 141.991C2.19583 139.001 19.0717 130.007 39.9546 124.666C44.4619 111.878 50.0231 99.485 56.5811 87.6158C56.4979 87.6158 73.2824 57.5168 73.2076 57.5002C68.3944 55.3119 63.7728 52.7254 59.3909 49.7679C58.6491 49.1977 57.9766 48.5427 57.3874 47.8161C56.9427 47.0828 56.7124 46.2398 56.7224 45.3826C56.7224 44.685 57.7117 43.4391 58.1523 42.891C59.2765 41.5698 60.5174 40.3523 61.86 39.2532C65.0602 36.6353 68.4226 34.2219 71.9273 32.0275C73.59 30.9312 75.3191 29.8597 77.0234 28.78C88.9945 21.1639 95.5534 15.4332 106.519 9.13764C116.994 3.14118 122.081 -0.554775 134.227 0.0681644C149.49 0.0681644 187.431 48.356 204.541 73.2391C214.798 88.1886 228.565 115.107 233.637 125.231C234.85 125.539 235.948 125.829 236.962 126.128C252.524 130.795 267.787 137.64 271.52 141.991C274.845 145.862 260.314 147.59 245.99 150.081C231.666 152.573 183.075 153.81 136.38 154.126C89.6847 154.441 35.1828 152.88 23.3198 151.011C11.4568 149.143 -2.11039 145.721 0.275504 141.991Z" fill="#6665DD"/>
<path d="M220.617 100.282C220.617 100.282 189.858 92.5829 135.665 92.5829C77.4717 92.5829 49.4478 101.553 49.4478 101.553C49.4478 101.553 46.1225 107.864 44.676 111.519C43.2295 115.173 39.9546 124.666 39.9546 124.666C39.9546 124.666 82.2935 117.092 136.479 117.092C169.107 117.227 201.672 119.977 233.86 125.315C233.86 125.315 228.948 113.827 226.004 108.928C223.061 104.027 220.617 100.282 220.617 100.282Z" fill="#FF99A5"/>
<path d="M37.552 35.3245C41.0769 34.8096 45.8653 45.5901 45.8653 45.5901C45.8653 45.5901 56.9552 42.6085 58.6842 45.5901C60.4134 48.5717 50.8865 55.731 50.8865 55.731C50.8865 55.731 56.6393 65.8387 54.8186 67.94C52.998 70.0413 42.7395 63.6627 42.7395 63.6627C42.7395 63.6627 34.9167 72.4665 32.3645 71.1376C29.8124 69.8088 32.7054 58.3389 32.7054 58.3389C32.7054 58.3389 21.6405 53.638 22.397 50.8475C23.1534 48.0568 34.6839 47.2096 34.6839 47.2096C34.6839 47.2096 34.0355 35.8395 37.552 35.3245Z" fill="#FFE600"/>
</svg>

<svg xmlns="http://www.w3.org/2000/svg" fill="none" viewBox="0 0 272 256"><path fill="#F2F4F8" fill-rule="evenodd" d="M30.968 95.921c-1.83 11.76.324 23.861 2.56 35.489.862 1.858 2.75 3.109 5.078 3.91-4.774 10.066-7.398 21.043-7.398 32.534 0 48.662 47.153 88.146 105.313 88.146 58.159 0 105.345-39.393 105.345-88.146 0-11.611-2.677-22.695-7.542-32.845 1.947-.801 3.499-1.965 4.259-3.599 2.237-11.628 4.381-23.729 2.553-35.489-1.713-15.78-7.133-20.597-23.41-16.553-8.281 1.921-19.195 6.804-27.588 12.548-15.709-7.788-34.042-12.257-53.617-12.257-19.8 0-38.325 4.576-54.148 12.535-8.443-5.864-19.58-10.874-27.987-12.826-16.285-4.044-21.697.773-23.418 16.553m61.318 69.575c-12.346-5.44-33.444-4.062-33.444-4.062s.989 19.842 13.101 26.578c14.365 7.981 41.076 4.028 41.076 4.028s-2.27-18.454-20.733-26.585zm68.592 26.577s26.71 3.954 41.076-4.028c12.112-6.736 13.102-26.577 13.102-26.577s-21.099-1.379-33.445 4.061c-18.463 8.057-20.733 26.469-20.733 26.469zm-29.628 13.986c0 1.463 2.718 2.65 6.068 2.65s6.069-1.187 6.069-2.65c0-1.461-2.719-2.64-6.069-2.64s-6.068 1.137-6.068 2.64" clip-rule="evenodd"/><path fill="#F2F4F8" fill-rule="evenodd" d="M256.54 193.842a86.8 86.8 0 0 0-30.893-5.813h.017c-2.677 0-2.677-4.153 0-4.153a90 90 0 0 1 31.998 5.988 2.12 2.12 0 0 1 1.438 2.525 2.095 2.095 0 0 1-2.56 1.453m-240.469-3.886a90.1 90.1 0 0 1 32.006-5.989v.025c2.677 0 2.669 4.153 0 4.153a86.7 86.7 0 0 0-30.9 5.813 2.093 2.093 0 0 1-2.552-1.454 2.124 2.124 0 0 1 1.446-2.548m21.19 11.901a56.7 56.7 0 0 1 15.794-2.649c2.662.015 2.657 4.152-.015 4.152a52.3 52.3 0 0 0-14.407 2.417c-4.34 1.271-9.302 3.065-12.47 5.997-1.961 1.818-4.904-1.113-2.934-2.932 3.849-3.554 9.145-5.515 14.033-6.985m15.794-2.649h.002-.017zm4.74 10.373a79.3 79.3 0 0 0-11.98 6.387 37.3 37.3 0 0 0-9.975 8.978 2.08 2.08 0 0 0 .74 2.84 2.136 2.136 0 0 0 2.851-.739c2.336-3.223 5.686-5.722 9.003-7.857a81 81 0 0 1 11.423-6.021 2.093 2.093 0 0 0 .748-2.841 2.137 2.137 0 0 0-2.843-.747zm162.874-6.304c4.892.122 9.742.932 14.406 2.409a49 49 0 0 1 7.042 2.599 21.4 21.4 0 0 1 5.412 3.406c1.962 1.81 4.904-1.113 2.943-2.941-3.824-3.546-9.087-5.514-14.008-6.984a56.5 56.5 0 0 0-15.795-2.642c-2.677 0-2.685 4.153 0 4.153m4.589 15.789a83 83 0 0 0-11.248-5.814v-.041a2.1 2.1 0 0 1-.748-2.841 2.15 2.15 0 0 1 2.851-.739c8.098 3.529 16.619 8.065 21.914 15.365a2.09 2.09 0 0 1-.74 2.84 2.13 2.13 0 0 1-2.843-.747c-2.394-3.297-5.778-5.856-9.186-8.023" clip-rule="evenodd"/><path fill="#6665DD" d="M.276 141.991c1.92-2.99 18.796-11.984 39.679-17.325a245 245 0 0 1 16.626-37.05c-.083 0 16.701-30.1 16.627-30.116a95 95 0 0 1-13.817-7.732 12 12 0 0 1-2.004-1.952 4.6 4.6 0 0 1-.665-2.433c0-.698.99-1.944 1.43-2.492a29 29 0 0 1 3.708-3.638 98 98 0 0 1 10.067-7.225c1.663-1.097 3.392-2.168 5.096-3.248 11.972-7.616 18.53-13.347 29.496-19.642 10.475-5.997 15.562-9.693 27.708-9.07 15.263 0 53.204 48.288 70.314 73.171 10.257 14.95 24.024 41.868 29.096 51.992a92 92 0 0 1 3.325.897c15.562 4.667 30.825 11.512 34.558 15.863 3.325 3.871-11.206 5.599-25.53 8.09-14.324 2.492-62.915 3.729-109.61 4.045s-101.197-1.246-113.06-3.115c-11.863-1.868-25.43-5.29-23.044-9.02"/><path fill="#FF99A5" d="M220.617 100.282s-30.759-7.7-84.952-7.7c-58.193 0-86.217 8.971-86.217 8.971s-3.325 6.311-4.772 9.966-4.721 13.147-4.721 13.147 42.338-7.574 96.524-7.574a611 611 0 0 1 97.381 8.223s-4.912-11.488-7.856-16.387c-2.943-4.901-5.387-8.646-5.387-8.646"/><path fill="#FFE600" d="M37.552 35.325c3.525-.515 8.313 10.265 8.313 10.265s11.09-2.982 12.82 0c1.728 2.982-7.799 10.141-7.799 10.141S56.64 65.839 54.82 67.94s-12.08-4.277-12.08-4.277-7.822 8.804-10.374 7.475.34-12.8.34-12.8-11.064-4.7-10.308-7.49 12.287-3.638 12.287-3.638-.648-11.37 2.868-11.885"/></svg>
